icons/1_Primary/Vimeo.svg

<svg xmlns="http://www.w3.org/2000/svg" width="1024" height="1024" fill="none">
   <g clip-path="url(#a)">
      <path fill="#9ABEFF" d="M512 1024c282.77 0 512-229.23 512-512S794.77 0 512 0 0 229.23 0 512s229.23 512 512 512Z"/>
      <path fill="#fff" d="M333.91 410.53c.227-6.06 3.797-11.893 10.71-17.5a35.768 35.768 0 0 1 23-8.39 15.56 15.56 0 0 1 12.38 5.78c3.28 3.854 4.803 7.757 4.57 11.71-.233 5.834-3.163 11.434-8.79 16.8a31.425 31.425 0 0 1-22.5 9.09c-13.38-.013-19.837-5.843-19.37-17.49Zm528 92.69C860.97 524.754 853 543.347 838 559c-15 15.654-33.633 23.494-55.9 23.52-18.513 0-32.573-5.97-42.18-17.91a49.986 49.986 0 0 1-5.59-8.85c-2.52 1.56-5.15 3.13-7.93 4.69-24.84 14.28-50.033 21.417-75.58 21.41-18.987 0-32.583-6.333-40.79-19-.6-.89-1.16-1.8-1.7-2.73l-.75.67c-15.707 13.58-31.407 20.37-47.1 20.37-15.247 0-22.63-8.43-22.15-25.29.227-7.5 1.69-16.5 4.39-27 2.7-10.5 4.167-18.696 4.4-24.59.24-8.9-2.467-13.353-8.12-13.36-6.113 0-13.4 7.267-21.86 21.8-8.94 15.24-13.763 29.997-14.47 44.27-.473 10.087.527 17.824 3 23.21-16.353.474-27.8-2.22-34.34-8.08-5.853-5.16-8.54-13.713-8.06-25.66a94.822 94.822 0 0 1 3.45-22.5 90.252 90.252 0 0 0 3.45-20c.473-8.666-2.693-13-9.5-13-5.873 0-12.207 6.667-19 20a102.119 102.119 0 0 0-11.26 41.83c-.473 13.127.367 22.267 2.52 27.42-16.087.474-27.51-2.916-34.27-10.17a28.118 28.118 0 0 1-6.49-12.91 188.551 188.551 0 0 1-4.05 3.7c-15.707 13.58-31.407 20.37-47.1 20.37-7.273 0-12.84-2.333-16.7-7-3.86-4.666-5.677-10.756-5.45-18.27.227-7.726 2.627-19.67 7.2-35.83 4.573-16.16 6.86-24.826 6.86-26 0-6.08-2.11-9.123-6.33-9.13-1.333 0-4.95 2.184-10.85 6.55-4.46 13.334-14.167 29.617-29.12 48.85-21.287 27.674-39.287 41.51-54 41.51-9.12 0-16.84-8.426-23.16-25.28l-12.64-46.35c-4.667-16.846-9.693-25.273-15.08-25.28-1.173 0-5.27 2.46-12.29 7.38l-7.46-9.5a2123.13 2123.13 0 0 0 22.85-20.38c10.307-8.906 18.04-13.593 23.2-14.06 12.187-1.173 19.687 7.16 22.5 25 3.04 19.24 5.15 31.207 6.33 35.9 3.513 15.967 7.38 23.947 11.6 23.94 3.28 0 8.2-5.176 14.76-15.53 6.56-10.353 10.073-18.236 10.54-23.65.933-8.94-2.58-13.413-10.54-13.42a29.332 29.332 0 0 0-11.59 2.57c7.693-25.213 22.39-37.466 44.09-36.76 14.487.427 22.077 8.934 22.77 25.52l10.49-9.52c10.08-8.906 17.583-13.593 22.51-14.06 7.727-.666 13.393 1.61 17 6.83 3.607 5.22 4.94 12.05 4 20.49-3.007 14.247-6.267 32.337-9.78 54.27-.233 10.047 3.4 15.067 10.9 15.06 3.28 0 9.14-3.47 17.58-10.41l.31-.26c.54-4.893 1.407-10.706 2.6-17.44a197.585 197.585 0 0 0 3.24-25.42c.46-4.2-.593-6.303-3.16-6.31-1.407 0-5.407 2.37-12 7.11l-8.43-9.49c1.173-.926 8.557-7.72 22.15-20.38 9.84-9.133 16.507-13.816 20-14.05 6.093-.473 11.013 2.044 14.76 7.55a33.23 33.23 0 0 1 5.63 19.16 31.18 31.18 0 0 1-.7 6.68A64.731 64.731 0 0 1 448 467.74c10.78-9.366 22.85-14.64 36.21-15.82 11.487-.933 19.693 1.76 24.62 8.08 4 5.16 5.873 12.544 5.62 22.15 1.64-1.4 3.4-2.93 5.28-4.57a93.386 93.386 0 0 1 15.81-15.11c8.667-6.326 17.69-9.843 27.07-10.55 11.247-.933 19.333 1.75 24.26 8.05 4.213 5.134 6.09 12.487 5.63 22.06-.233 6.547-1.817 16.064-4.75 28.55-2.933 12.487-4.4 19.664-4.4 21.53-.233 4.914.237 8.3 1.41 10.16 1.17 1.87 4 2.79 8.43 2.79 2 0 4.967-1.296 8.9-3.89a63.85 63.85 0 0 1-.47-9.2c.227-18.973 8.663-37.016 25.31-54.13 18.28-18.74 39.84-28.113 64.68-28.12 22.973 0 35.16 9.354 36.56 28.06.933 11.914-5.627 24.187-19.68 36.82-15.007 13.8-33.877 22.567-56.61 26.3 4.213 5.847 10.547 8.767 19 8.76 16.867 0 35.267-4.29 55.2-12.87l2.63-1.13c-.16-1.43-.28-2.88-.36-4.37-1.18-20.126 6.087-38.616 21.8-55.47 16.867-18.72 38.073-28.08 63.62-28.08 16.4 0 28.82 5.5 37.26 16.5 7.98 10.08 11.61 23.074 10.89 38.98h-.01Zm-185.77 5.05c6.78-7.46 10.29-13.523 10.53-18.19.227-6.286-2.35-9.433-7.73-9.44-7.027 0-14.163 4.84-21.41 14.52s-10.983 18.96-11.21 27.84c-.13 0-.13 1.52 0 4.55a79.096 79.096 0 0 0 29.83-19.28h-.01Zm143.4-23.81c-2-5.28-4.87-7.923-8.61-7.93-11.96 0-21.8 6.46-29.52 19.38a68 68 0 0 0-10.55 33.81 30.172 30.172 0 0 0 3.16 15.5c2.567 5.167 6.2 7.75 10.9 7.75 10.54 0 19.563-6.223 27.07-18.67a66.636 66.636 0 0 0 10.19-32.4 44.26 44.26 0 0 0-2.63-17.44h-.01Z"/>
   </g>
   <defs>
      <clipPath id="a">
         <path fill="#fff" d="M0 0h1024v1024H0z"/>
      </clipPath>
   </defs>
</svg>

<svg width="1024" height="1024" viewBox="0 0 1024 1024" fill="none" xmlns="http://www.w3.org/2000/svg">
<g clip-path="url(#clip0_2_3849)">
<path d="M512 1024C794.77 1024 1024 794.77 1024 512C1024 229.23 794.77 0 512 0C229.23 0 0 229.23 0 512C0 794.77 229.23 1024 512 1024Z" fill="#9ABEFF"/>
<path d="M333.91 410.53C334.137 404.47 337.707 398.637 344.62 393.03C351.061 387.615 359.205 384.644 367.62 384.64C369.987 384.598 372.333 385.096 374.479 386.098C376.624 387.099 378.513 388.578 380 390.42C383.28 394.274 384.803 398.177 384.57 402.13C384.337 407.964 381.407 413.564 375.78 418.93C372.819 421.861 369.305 424.174 365.443 425.734C361.58 427.295 357.446 428.072 353.28 428.02C339.9 428.007 333.443 422.177 333.91 410.53ZM861.91 503.22C860.97 524.754 853 543.347 838 559C823 574.654 804.367 582.494 782.1 582.52C763.587 582.52 749.527 576.55 739.92 564.61C737.752 561.864 735.879 558.898 734.33 555.76C731.81 557.32 729.18 558.89 726.4 560.45C701.56 574.73 676.367 581.867 650.82 581.86C631.833 581.86 618.237 575.527 610.03 562.86C609.43 561.97 608.87 561.06 608.33 560.13L607.58 560.8C591.873 574.38 576.173 581.17 560.48 581.17C545.233 581.17 537.85 572.74 538.33 555.88C538.557 548.38 540.02 539.38 542.72 528.88C545.42 518.38 546.887 510.184 547.12 504.29C547.36 495.39 544.653 490.937 539 490.93C532.887 490.93 525.6 498.197 517.14 512.73C508.2 527.97 503.377 542.727 502.67 557C502.197 567.087 503.197 574.824 505.67 580.21C489.317 580.684 477.87 577.99 471.33 572.13C465.477 566.97 462.79 558.417 463.27 546.47C463.512 538.859 464.671 531.304 466.72 523.97C468.618 517.454 469.776 510.745 470.17 503.97C470.643 495.304 467.477 490.97 460.67 490.97C454.797 490.97 448.463 497.637 441.67 510.97C434.968 523.948 431.129 538.212 430.41 552.8C429.937 565.927 430.777 575.067 432.93 580.22C416.843 580.694 405.42 577.304 398.66 570.05C395.409 566.386 393.172 561.935 392.17 557.14C390.837 558.394 389.487 559.627 388.12 560.84C372.413 574.42 356.713 581.21 341.02 581.21C333.747 581.21 328.18 578.877 324.32 574.21C320.46 569.544 318.643 563.454 318.87 555.94C319.097 548.214 321.497 536.27 326.07 520.11C330.643 503.95 332.93 495.284 332.93 494.11C332.93 488.03 330.82 484.987 326.6 484.98C325.267 484.98 321.65 487.164 315.75 491.53C311.29 504.864 301.583 521.147 286.63 540.38C265.343 568.054 247.343 581.89 232.63 581.89C223.51 581.89 215.79 573.464 209.47 556.61L196.83 510.26C192.163 493.414 187.137 484.987 181.75 484.98C180.577 484.98 176.48 487.44 169.46 492.36L162 482.86C169.727 476.067 177.343 469.274 184.85 462.48C195.157 453.574 202.89 448.887 208.05 448.42C220.237 447.247 227.737 455.58 230.55 473.42C233.59 492.66 235.7 504.627 236.88 509.32C240.393 525.287 244.26 533.267 248.48 533.26C251.76 533.26 256.68 528.084 263.24 517.73C269.8 507.377 273.313 499.494 273.78 494.08C274.713 485.14 271.2 480.667 263.24 480.66C259.242 480.718 255.298 481.592 251.65 483.23C259.343 458.017 274.04 445.764 295.74 446.47C310.227 446.897 317.817 455.404 318.51 471.99L329 462.47C339.08 453.564 346.583 448.877 351.51 448.41C359.237 447.744 364.903 450.02 368.51 455.24C372.117 460.46 373.45 467.29 372.51 475.73C369.503 489.977 366.243 508.067 362.73 530C362.497 540.047 366.13 545.067 373.63 545.06C376.91 545.06 382.77 541.59 391.21 534.65L391.52 534.39C392.06 529.497 392.927 523.684 394.12 516.95C395.749 508.556 396.831 500.065 397.36 491.53C397.82 487.33 396.767 485.227 394.2 485.22C392.793 485.22 388.793 487.59 382.2 492.33L373.77 482.84C374.943 481.914 382.327 475.12 395.92 462.46C405.76 453.327 412.427 448.644 415.92 448.41C422.013 447.937 426.933 450.454 430.68 455.96C434.477 461.619 436.442 468.307 436.31 475.12C436.318 477.366 436.083 479.605 435.61 481.8C439.036 476.537 443.21 471.801 448 467.74C458.78 458.374 470.85 453.1 484.21 451.92C495.697 450.987 503.903 453.68 508.83 460C512.83 465.16 514.703 472.544 514.45 482.15C516.09 480.75 517.85 479.22 519.73 477.58C524.39 471.942 529.696 466.87 535.54 462.47C544.207 456.144 553.23 452.627 562.61 451.92C573.857 450.987 581.943 453.67 586.87 459.97C591.083 465.104 592.96 472.457 592.5 482.03C592.267 488.577 590.683 498.094 587.75 510.58C584.817 523.067 583.35 530.244 583.35 532.11C583.117 537.024 583.587 540.41 584.76 542.27C585.93 544.14 588.76 545.06 593.19 545.06C595.19 545.06 598.157 543.764 602.09 541.17C601.712 538.119 601.555 535.044 601.62 531.97C601.847 512.997 610.283 494.954 626.93 477.84C645.21 459.1 666.77 449.727 691.61 449.72C714.583 449.72 726.77 459.074 728.17 477.78C729.103 489.694 722.543 501.967 708.49 514.6C693.483 528.4 674.613 537.167 651.88 540.9C656.093 546.747 662.427 549.667 670.88 549.66C687.747 549.66 706.147 545.37 726.08 536.79L728.71 535.66C728.55 534.23 728.43 532.78 728.35 531.29C727.17 511.164 734.437 492.674 750.15 475.82C767.017 457.1 788.223 447.74 813.77 447.74C830.17 447.74 842.59 453.24 851.03 464.24C859.01 474.32 862.64 487.314 861.92 503.22H861.91ZM676.14 508.27C682.92 500.81 686.43 494.747 686.67 490.08C686.897 483.794 684.32 480.647 678.94 480.64C671.913 480.64 664.777 485.48 657.53 495.16C650.283 504.84 646.547 514.12 646.32 523C646.19 523 646.19 524.52 646.32 527.55C657.596 523.468 667.797 516.875 676.15 508.27H676.14ZM819.54 484.46C817.54 479.18 814.67 476.537 810.93 476.53C798.97 476.53 789.13 482.99 781.41 495.91C774.969 506.05 771.328 517.716 770.86 529.72C770.516 535.076 771.607 540.426 774.02 545.22C776.587 550.387 780.22 552.97 784.92 552.97C795.46 552.97 804.483 546.747 811.99 534.3C818.128 524.562 821.639 513.399 822.18 501.9C822.482 495.969 821.588 490.038 819.55 484.46H819.54Z" fill="white"/>
</g>
<defs>
<clipPath id="clip0_2_3849">
<rect width="1024" height="1024" fill="white"/>
</clipPath>
</defs>
</svg>
